apps/mobile/assets/icons/phosphor/text-strikethrough-bold.svg

<svg
  height="32"
  viewBox="0 0 256 256"
  width="32"
  xmlns="http://www.w3.org/2000/svg"
>
  <path
    d="m228 128a12 12 0 0 1 -12 12h-30.14a41.48 41.48 0 0 1 10.14 28c0 14.45-7.81 28.32-21.43 38.05-12.57 9-29.13 13.95-46.57 13.95s-34-4.95-46.57-13.95c-13.62-9.73-21.43-23.6-21.43-38.05a12 12 0 0 1 24 0c0 15.18 20.15 28 44 28s44-12.82 44-28c0-12.76-9.3-20.18-35.35-28h-96.65a12 12 0 0 1 0-24h176a12 12 0 0 1 12 12zm-152.89-28a12 12 0 0 0 12-12c0-16 17.58-28 40.89-28 17.36 0 31.37 6.65 37.48 17.78a12 12 0 0 0 21-11.56c-10.35-18.92-32.23-30.22-58.48-30.22-37 0-64.89 22.35-64.89 52a12 12 0 0 0 12 12z"
  />
</svg>

<svg
  fill="#000"
  height="32"
  viewBox="0 0 256 256"
  width="32"
  xmlns="http://www.w3.org/2000/svg"
>
  <path
    d="M228,128a12,12,0,0,1-12,12H185.86A41.48,41.48,0,0,1,196,168c0,14.45-7.81,28.32-21.43,38.05C162,215.05,145.44,220,128,220s-34-4.95-46.57-13.95C67.81,196.32,60,182.45,60,168a12,12,0,0,1,24,0c0,15.18,20.15,28,44,28s44-12.82,44-28c0-12.76-9.3-20.18-35.35-28H40a12,12,0,0,1,0-24H216A12,12,0,0,1,228,128ZM75.11,100a12,12,0,0,0,12-12c0-16,17.58-28,40.89-28,17.36,0,31.37,6.65,37.48,17.78a12,12,0,0,0,21-11.56C176.13,47.3,154.25,36,128,36,91,36,63.11,58.35,63.11,88A12,12,0,0,0,75.11,100Z"
  />
</svg>
